config/expand/iconfont/module-menu/module-xiangmutuozhan.svg

<?xml version="1.0" encoding="UTF-8"?>
<svg width="20px" height="18px" viewBox="0 0 20 18" version="1.1" xmlns="http://www.w3.org/2000/svg" xmlns:xlink="http://www.w3.org/1999/xlink">
    <!-- Generator: Sketch 53 (72520) - https://sketchapp.com -->
    <title>xiangmutuozhan</title>
    <desc>Created with Sketch.</desc>
    <defs>
        <linearGradient x1="14.3387761%" y1="50%" x2="100%" y2="50%" id="linearGradient-1">
            <stop stop-color="#B7B7B7" offset="0%"></stop>
            <stop stop-color="#FFFFFF" offset="100%"></stop>
        </linearGradient>
    </defs>
    <g id="Page-2" stroke="none" stroke-width="1" fill="none" fill-rule="evenodd">
        <g id="图标" transform="translate(-426.000000, -442.000000)">
            <g id="xiangmutuozhan" transform="translate(426.000000, 442.000000)">
                <path d="M18,18 L2,18 C0.8954305,18 1.3527075e-16,17.1045695 0,16 L0,2 C-1.3527075e-16,0.8954305 0.8954305,2.02906125e-16 2,0 L8.11362135,8.8817842e-16 C8.75952355,7.69528109e-16 9.36566525,0.311931367 9.74108829,0.837523611 L11.1428571,2.8 L18,2.8 C19.1045695,2.8 20,3.6954305 20,4.8 L20,16 C20,17.1045695 19.1045695,18 18,18 Z M2.94639727,16.1940604 L17.1383533,16.1940604 C17.690638,16.1940604 18.1383533,15.7463451 18.1383533,15.1940604 L18.1383533,5.82967674 C18.1383533,5.27739199 17.690638,4.82967674 17.1383533,4.82967674 L10.0952381,4.82967674 L8.39303614,2.33828526 C8.2066893,2.06554269 7.89767663,1.90241953 7.56735307,1.90241953 L2.94639727,1.90241953 C2.39411252,1.90241953 1.94639727,2.35013478 1.94639727,2.90241953 L1.94639727,15.1940604 C1.94639727,15.7463451 2.39411252,16.1940604 2.94639727,16.1940604 Z" id="Shape" fill="#333333" fill-rule="nonzero"></path>
                <path d="M9,7.66666667 L13,7.66666667 C13.5522847,7.66666667 14,8.11438192 14,8.66666667 L14,8.66666667 C14,9.21895142 13.5522847,9.66666667 13,9.66666667 L9,9.66666667 C8.44771525,9.66666667 8,9.21895142 8,8.66666667 L8,8.66666667 C8,8.11438192 8.44771525,7.66666667 9,7.66666667 Z M9,11 L13,11 C13.5522847,11 14,11.4477153 14,12 L14,12 C14,12.5522847 13.5522847,13 13,13 L9,13 C8.44771525,13 8,12.5522847 8,12 L8,12 C8,11.4477153 8.44771525,11 9,11 Z M6,7.66666667 L6,7.66666667 C6.55228475,7.66666667 7,8.11438192 7,8.66666667 L7,8.66666667 C7,9.21895142 6.55228475,9.66666667 6,9.66666667 L6,9.66666667 C5.44771525,9.66666667 5,9.21895142 5,8.66666667 L5,8.66666667 C5,8.11438192 5.44771525,7.66666667 6,7.66666667 Z M6,11 L6,11 C6.55228475,11 7,11.4477153 7,12 L7,12 C7,12.5522847 6.55228475,13 6,13 L6,13 C5.44771525,13 5,12.5522847 5,12 L5,12 C5,11.4477153 5.44771525,11 6,11 Z" id="Shape" fill="url(#linearGradient-1)"></path>
            </g>
        </g>
    </g>
</svg>

<svg width="20" height="18" xmlns="http://www.w3.org/2000/svg"><path d="M18 18H2a2 2 0 01-2-2V2a2 2 0 012-2h6.114A2 2 0 019.74.838L11.143 2.8H18a2 2 0 012 2V16a2 2 0 01-2 2zM2.946 16.194h14.192a1 1 0 001-1V5.83a1 1 0 00-1-1h-7.043L8.393 2.338a1 1 0 00-.826-.436h-4.62a1 1 0 00-1 1v12.292a1 1 0 001 1z"/><path d="M9 7.667h4a1 1 0 010 2H9a1 1 0 110-2zM9 11h4a1 1 0 010 2H9a1 1 0 010-2zM6 7.667a1 1 0 110 2 1 1 0 110-2zM6 11a1 1 0 010 2 1 1 0 010-2z"/></svg>
